X: 2060
T: MAJOR MOLE
C:
Q: "Reel."
R: Reel.
%R: reel
B: James Kerr "Merry Melodies" v.2 p.9 #60
Z: 2016 John Chambers <jc:trillian.mit.edu>
M: C
L: 1/8
K: Am
|:\
vAeed cBA^G | Aeed c2B2 |\
Aee^f gfge | dBGB edcB ::\
vAE E/E/E (ucA)B^G |
AE E/E/E c2Bc |\
[1 AE E/E/E (cA)Bd | BGGB d2(cB) :|\
[2 Aee^f gfge | dBGB edcB |]
